X:1
T:Verbum Caro
T:Andrew Richesson April 9, 2017
T:Verbum Caro
T:©
T:©
T:©
T:©
T:©
T:©
T:©
T:©
T:©
T:©
T:©
T:©
C:Andrew Richesson
Z:©
%%score [ 1 2 3 ] { ( 4 5 ) | ( 6 7 8 ) }
L:1/8
Q:1/4=80
M:3/4
K:Cmin
V:1 treble nm="Soprano" snm="S"
V:2 treble nm="Alto" snm="A"
V:3 bass nm="Baritone" snm="B"
V:4 treble nm="Organ" snm="Org."
V:5 treble 
V:6 bass 
V:7 bass 
V:8 bass 
V:1
"^Andante" z2 | z6 | z4 CC | A3 G (AB) | G4 GG | e3 d ef | d4 GG | c3 B cd | B4 EE | A3 A GF | %10
w: ||Ver- bum|ca- ro fac- tum|est, ver- bum|ca- ro fac- tum|est, ver- bum|ca- ro fac- tum|est, ver- bum|ca- ro fac- tum|
 (E3 F) DE | F3 G EF | G4 z2 | z2 z2 G2 | e4 c2 | f4 d2 | (e2 d2) c2 | d4 z2 | z6 | z6 | z2 z2 z2 | %21
w: est, _ ver- bum|ca- ro fac- tum|est,|et|ha- bi-|ta- bis|in _ no-|bis,||||
 z6 | z6 | z6 | z4 F2 | _d4 B2 | e4 c2 | (_d2 c2) B2 | c4 z2 | z6 | z6 | z6 | z6 | z6 | z6 | z6 | %36
w: |||et|ha- bi-|ta- bis|in _ no-|bis,||||||||
 z6 | z6 | z6 | z6 | z6 | z6 | z6 | z6 | f2 _d2 f2 | (B=A Bc) _d2 | (_dc) (de) f2 | %47
w: ||||||||glo- ri- am|qua- * * * si|u- * ni- * ge-|
 (fe) (_dc) (=d=e) | f4 e2 | e2 _d2 c2 | (c2 B2) c2 | dc de dc | =B=A Bc d2 | e2 c2 e2 | %54
w: ni- * ti _ a _|Pa- tre|glo- ri- am|qua- * si|u- ni- ge- ni- ti a|Pa _ _ _ tre,|glo- ri- am|
 (AG AB) c2 | (c=B) (cd) e2 | (ed) ef d2 | !fermata!c4 z2 | z6 | z4 (FG) | (A3 c) BA | G4 G2 | %62
w: qua- * * * si|u- * ni- * ge-|ni- * ti a Pa-|tre,||ple- _|num _ gra- ti-|ae, ple-|
 (e3 g) fe | (d3 f) (ed) | (c3 e) dc | =B2 z2 z2 | z6 | z6 | (Bc) _d2 d2 | c4 c2 | e2 d2 c2 | %71
w: num _ gra- ti-|ae, _ ple- *|num _ gra- ti-|ae,|||et _ ve- ri-|ta- tis,|et ve- ri-|
 (c2 B2) A2 | (GA) B2 B2 | (AG) F2 z2 | z2 z2 z2 | z4 (FG) | (A3 c) BA | G4 G2 | (e3 g) fe | %79
w: ta- * tis,|et _ ve- ri-|ta- * tis,||ple- *|num _ gra- ti|ae, ple-|num _ gra- ti-|
 (d3 f) (ed) | (c3 e) _dc | !fermata!=B4[Q:1/4=70]"^rit." G2 | e4 e2 | (e2 dc d2) | c6- | c6 |] %86
w: ae, _ ple- *|num _ gra- ti-|ae, et|ve- ri-|ta- * * *|tis.|_|
V:2
 G,G, | E3 F DE | C4 B,C | C4 F2 | (D3 E) (CD) | G2 (c4- | c2 B=A) B2 | (B2 AG) A2 | A2 (GF) G2 | %9
w: Ver- bum|ca- ro fac- tum|est, ver- bum|ca- ro|fac- * tum _|est, ver-|* * * bum|ca- * * ro|fac- tum _ est,|
 (G2 F2) D2 | (C2 G,2) G,2 | C4 C2 | =B,4 z2 | (CD EF ED) | G4 G2 | (G2 F2) F2 | (E2 G2) (GA) | %17
w: ver- * bum|ca- * ro|fac- tum|est,|et _ _ _ _ _|ha- bi-|ta- * bis|in _ no- *|
 B4 E2 | c4 A2 | (_d4 c2) | (=B3 G) (=AB) | c3 (c G=A) | B3 B FG | A3 A EF | _G2 E2 E2 | _D4 D2 | %26
w: bis, et|vi- di-|mus _|glo- * ri- *|am e- * *|ius, et vi- di-|mus glo- ri- am|e- ius, et|ha- bi-|
 (_G2 B2) (B=A) | (B2 F2) (F_G) | A4 z2 | x6 | x6 | x6 | x6 | x6 | x6 | x6 | E2 _C2 E2 | %37
w: ta- * bis _|in _ no- *|bis,||||||||glo- ri- am|
 (A,G, A,B,) _C2 | (_CB,) (C_D) E2 | (E_D) (_CD) (EF) | (_GD EF) G2 | _G2 F2 E2 | E_D EF _G2 | %43
w: qua- * * * si|u- * ni- * ge-|ni- * ti _ a _|Pa- * * * tre,|glo- ri- am|qua- si u- ni- ge-|
 (_GF) EF =G=A | B2 FE _D2 | _DC DE F2 | _G2 G2 A2 | B4 B2 | c2 A2 c2 | (FE FG) A2 | (AG) (AB) A2 | %51
w: ni- * ti a Pa- tre,|glo- ri- * am|qua- si u- ni- ge-|ni- ti a|Pa- tre,|glo- ri- am|qua- * * * si|u- * ni- * ge-|
 A2 G2 A2 | G4 (GF) | (ED) (EF) (ED) | (CB, CD) E2 | FF AA G2 | A2 (c3 =B) | !fermata!c4 B,2 | %58
w: ni- ti a|Pa- tre, _|glo- * ri- * am _|qu- * * * si|u- ni- ge- ni- ti|a Pa- *|tre, ple-|
 (G3 B) AG | F4 (C=E) | (F=E F2) F2 | (FD) (EF) (ED) | C4 c2- | c(B/=A/) B2 (B2- | BA/G/) A2 AA | %65
w: num _ gra- ti-|ae, ple- *|num _ _ gra-|ti- * ae, _ ple- *|num gra-|* ti- * ae, ple-|* * * num gra- ti-|
 G2 x4 | x6 | (FG) A2 A2 | FF B2 B2 | B4 A2 | (CD) E2 E2 | (C2 E2) E2 | E2 E2 G2 | F2 D2 B,2 | %74
w: ae,||et _ ve- ri-|ta- tis, ve- ri-|ta- tis,|et _ ve- ri-|ta- * tis,|et ve- ri-|ta- tis, ple-|
 (G3 B) AG | F4 (C=E) | (F=E F2) F2 | (FD) (EF) (ED) | C4 c2- | c(B/=A/) B2 (B2- | BA/G/) A2 AA | %81
w: num _ gra- ti|ae, ple- *|num _ _ gra-|ti- * ae, _ ple- *|num gra-|* ti- * ae, ple-|* * * num gra- ti-|
 !fermata!G4 G2 | (G2 A2) =A2 | (G2 FE F2 | F2 =E2 D2) | =E6 |] %86
w: ae, et|ve- * ri-|ta- * * *||tis.|
V:3
 z2 | z4 C,C, | A,3 B, G,A, | F,4 D,D, | =B,3 C =A,B, | C2 C,2 F,2 | B,,4 E,2 | A,,4 D,2 | %8
w: |Ver- bum|ca- ro fac- tum|est, ver- bum|ca- ro fac- tum|est, ver- bum|ca- ro|fac- tum|
 G,,4 C,2 | (F,2 D,2) =B,,2 | (C,2 E,2) B,,2 | (A,,2 C,2) A,,2 | G,,4 z2 | (C,4 =B,,2) | %14
w: est, et|ver- * bum|ca- * ro|fac- * tum|est,|et _|
 (C,3 D,) (B,,C,) | (A,,3 B,,) (C,=B,,) | (C,3 B,,) A,,2 | G,,4 G,2 | (A,3 B,) (G,A,) | %19
w: ha- * bi- *|ta- * bis _|in _ no-|bis, et|vi- * di- *|
 (F,3 G, E,F,) | G,4 F,2 | =E,4 _E,2 | D,4 _D,2 | C,4 _C,2 | B,,2 B,2 =A,2 | (B,C A,B,) _G,2 | %26
w: mus _ _ _|glo- ri-|am e-|ius, glo-|ri- am|e- ius, et|ha- * * * bi-|
 (_G,A, F,G,) (E,F,) | B,,2 (B,A, _G,2) | F,4 _D,2 | B,4 _G,2 | (_C4 B,2) | (=A,3 F,) (G,A,) | %32
w: ta- * * * bis _|in no- * *|bis, et|vi- di-|mus _|glo- * ri- *|
 B,3 (B, F,G,) | A,3 A, E,F, | _G,3 G, _D,E, | _F,4 E,2 | z6 | z6 | z6 | z6 | B,2 _G,2 B,2 | %41
w: am e- * *|ius, et vi- di-|mus glo- ri- am|e- ius|||||glo- ri- am|
 (E,D, E,F,) _G,2 | (_G,F,) (G,A,) B,2 | (B,A,) (_G,A,) (B,C) | (_D=A, B,C) (B,_A,) | _G,4 F,2 | %46
w: qua- * * * si|u- * ni- * ge-|ni- * ti _ a _|Pa- * * * tre, _|glo- ri-|
 E,4 _D,C, | (B,,2 G,,2) C,2 | F,4 C,2 | _D,4 A,,2 | (B,,2 _D,2) C,2 | =B,,2 C,2 F,2 | G,4 =B,2 | %53
w: am qua- si|u- * ni-|ge- ni-|ti a|Pa- * tre,|glo- ri- am|qua- si|
 C=B, CD C_B, | A,4 G,2 | F,4 E,2 | (F,2 ^F,2 G,2) | !fermata!C,4 z2 | z4 E,2 | (B,3 C) A,G, | %60
w: u- * * ni- * *|ge- ni-|ti a|Pa- * *|tre,|ple-|num _ gra- ti-|
 F,4 F,2 | C4 B,B, | A,4 F,2 | B,4 G,2 | A,4 F,F, | G,2 z2 z2 | (C,D,) E,2 E,2 | C,4 C,2 | %68
w: ae, ple-|num gra- ti-|ae, ple-|num ple-|num gra- ti-|ae,|et _ ve- ri-|ta- tis|
 F,2 F,2 =E,2 | F,4 F,2 | C,2 C,2 G,2 | (A,B, C2) C2 | B,2 G,2 E,2 | F,2 B,2 z2 | z2 z2 E,2 | %75
w: et ve- ri-|ta- tis,|et ve- ri-|ta- * * tis,|et ve ri-|ta- tis|ple-|
 (B,3 C) A,G, | F,4 F,2 | C4 B,B, | A,4 F,2 | B,4 G,2 | A,4 F,F, | !fermata!G,4 =B,2 | %82
w: num _ gra- ti|ae, ple-|num gra- ti-|ae, ple-|num ple-|num gra- ti-|ae, et|
 (C2 F,2) ^F,2 | (G,4 G,,2) | C,6- | C,6 |] %86
w: ve- * ri-|ta- *|tis.|_|
V:4
!mf! x2 | x6 | z4 CC | A3 G AB | G4 GG | e3 d ef | d4 GG | c3 B cd | B4 EE | A3 A GF | E3 F DE | %11
 F3 G EF | G6 | z2 z2 G2 | e4 c2 | [cf]4 d2 | e2 d2 c2 | d4!mp! z2 | c4 A2 | _d4 c2 | =B3 G =AB | %21
 c3 c G=A | B3 B FG | A3 A EF | _G4!f! F2 | _d4 B2 | e4 c2 | _d2 c2 B2 |!mp! c4 _D2 | B4 _G2 | %30
 _c4 B2 | =A3 F GA | B3 B FG | A3 A EF | _G3 G _DE | _F4 E2 |!mf! E2 _C2 E2 | A,G, A,B, _C2 | %38
 _CB, C_D E2 | E_D _CD EF | [E_G]D EF G2 | _G2 F2 E2 | E_D EF _G2 | _GF EF =G=A | f2 _d2 f2 | %45
 B=A Bc _d2 | _dc de f2 | fe _dc =d=e | f4 e2- | e2 _d2 c2 | c2 B2 A2 | dc de dc | =B=A Bc d2 | %53
 e2 c2 e2 | AG AB c2 | c=B cd e2 | ed ef d2 | !fermata!c4 z2 |"^cresc." G3 B AG | F4 FG | A3 c BA | %61
 G4!mf! G2 | e3 g fe | d3 f ed | c3 e dc | =B!mp!A GF ED | E2 C4 | FG A2 A2 | Bc _d2 d2 | c4 c2 | %70
 e2 d2 c2 | c2 B2 A2 | GA B2 B2 | AG F2 z2"^cresc." | G3 B AG | F4 FG | A3 c BA | G4!f! G2 | %78
 e3 g fe | d3 f ed | c3 e _dc | !fermata!=B4 G2 | e4 e2 | e2 dc d2 | c6- | c6 |] %86
V:5
 G,G, | E3 F DE | C4 B,C | C4 F2 | D3 E CD | G2 c4- | c2 B=A B2 | B2 AG A2 | A2 GF G2 | G2 F2 D2 | %10
 C2 C2 B,2 | C4 C2 | D6 | CD EF ED | G4 G2 | G2 F2 F2 | [EG]2 G2 GA | [GB]4 E2 | E4 C2 | A3 B GA | %20
 G4 D2 | G4 C2 | F4 B,2 | E4 A,2 | _D2 E2 E2 | [_DF]4 D2 | _G2 B2 B=A | B2 F2 F_G | A4 _D2 | %29
 _D4 B,2 | _G3 A FG | F4 C2 | F4 B,2 | E4 A,2 | _D4 _G,2 | _C2 [B,_D]2 B,2 | _C2 A,2 _G,2 | %37
 _F,4 _G,2 | _F,4 _G,2 | _C2 C2 B,=D | x6 | x6 | _C4 _D2 | x6 | B2 FE _D2 | _DC DE F2 | _G4 A2 | %47
 B2 B2 B2 | c2 A2 G2 | FE FG E2 | AG AB c2 | A2 G2 A2 | G4 GF | ED EF ED | CB, CD E2 | FF AA G2 | %56
 A2 c3 =B | E4 B,2 | B,4 E2 | EC D2 C=E | F=E F2 F2 | FD EF G2 | BA/G/ A2 c2- | cB/=A/ B2 B2- | %64
 BA/G/ A2 A2 | G2 z4 | G,6 | C2 F2 F2 | F2 B2 B2 | B4 A2 | CD E2 E2 | C2 E2 E2 | E2 E2 G2 | %73
 F2 D2 B,2 | B,4 E2 | EC D2 C=E | F=E F2 F2 | FD EF G2 | BA/G/ A2 c2- | cB/=A/ B2 B2 | %80
 BA/G/ A2 A2 | G4 F2 | [EG]2 [CA]2 [E=A]2 | G2 FE F2 | [FA]2 [=EG]2 [DF]2 | [=EG]6 |] %86
V:6
 z2 | z4 C,C, | A,3 B, G,A, | F,4 D,D, |"^Ped." =B,3 C =A,B, | C2 A,4 | B,2 G,4 | A,2 F,4 | %8
 G,2 E,4 | F,2 D,2 =B,,2 | C,2 E,2 G,2 | A,4 A,2 | =B,6 | x6 | D2 C2 E2 | A,3 B, C=B, | C2 D2 E2 | %17
"^Man." G,4 G,2 | A,3 B, G,A, | F,3 G, E,F, | G,4 F,2 | =E,4 _E,2 | D,4 _D,2 | C,4 _C,2 | %24
 B,,2 B,2 =A,2 | B,4 B,2 | B,4 _G,F, | F,2 _D2 D2 | F,4 F,2 |"^Man." x6 | x6 | x6 | x6 | x6 | x6 | %35
 x6 | x6 | x6 | x6 | A,4 B,A, | B,2 _G,2 B,2 | E,D, E,F, _G,2 | _G,F, G,A, B,2 | B,A, _G,A, B,C | %44
!f! _D=A, B,C B,_A, | _G,4 A,2 | B,=A, B,C _D2 | _D2 G,2 G,2 | A,2 C2 C2 | A,2 A,2 A,2 | %50
 _D,2 F,2 F,2 | F,2 E,2 D2 | D4 G,2 | C=B, CD C_B, | A,2 E,2 E,2 | A,4 C2 | C2 =A,2 G,2 | %57
!mp! G,4 [D,F,]2 | E,4 B,2 | B,4 CB, | C4 C2 | C4 ED | C4 A,2 | F,4 G,2 | E,4 F,E, | %65
 D,F, E,D, C,=B,, | C,D, E,2 E,2 | C,2 C,2 C,2 | _D2 B,2 G,2 |"^Man." F,4 F,2 | C,4 G,2 | %71
 A,B, C2 C2 | B,2 G,2 E,2 | C2 B,2!mf! [D,F,]2 |"^Ped." E,4 B,2 | B,4 CB, | C4 C2 | C4 ED | %78
 C4 A,2 | F,4 G,2 | E,4 F,E, | D,4 D,2 | G,2 F,2 C2 | C4 =B,2 | C6- | [G,C]6 |] %86
V:7
 x2 | x6 | x6 | x6 | z4 G,,2 | C,4 F,2 | B,,4 E,2 | A,,4 D,2 | G,,4 C,2 | F,,4 G,,2 | C,,4 B,,2 | %11
 A,,2 C,2 A,,2 | G,,6 | C,4 =B,,2 | C,3 D, B,,C, | A,,4 G,,2 | C,3 B,, A,,2 | G,,4 z2 | x6 | x6 | %20
 x6 | x6 | x6 | x6 | z4 F,,2 | B,,C, A,,B,, _G,,2 | _G,,A,, F,,G,, E,,F,, | B,,2 B,,A,, _G,,2 | %28
 F,,4 z2 | _G,3 A, F,G, | E,3 F, _D,E, | F,4 E,2 | D,4 _D,2 | C,4 _C,2 | B,,4 __B,,2 | %35
 A,,2 G,,2 E,,2 | [A,,A,]4 E,2 | _F,4 E,2 | _D,4 _C,B,, | A,,4 _G,,F,, | E,,4 B,,2 | _C,4 B,,2 | %42
 A,,2 _D,2 _G,,F,, | E,,2 C,,2 F,,2 | B,,4 F,,2 | _G,,4 F,,2 | E,,4 _D,,C, | B,,2 G,,2 C,2 | %48
 F,,4 C,2 | _D,4 A,,2 | B,,2 _D,2 C,2 | =B,,2 C,2 F,2 | G,4 =B,,2 | C,4 G,,2 | A,,4 G,,2 | %55
 F,,4 E,,2 | F,,2 ^F,,2 G,,2 | !fermata!C,4 z2 | z4 E,,2 | B,,3 C, A,,G,, | F,,4 F,,2 | C,4 B,,2 | %62
 A,,4 F,,2 | B,,4 G,,2 | A,,4 F,,2 | G,,2 z4 | C,3 D, B,,C, | A,,3 B,, G,,A,, | F,,4 =E,,2 | %69
 F,,4 F,,2 | x6 | x6 | x6 | F,2 B,2 z2 | z4 E,,2 | B,,3 C, A,,G,, | F,,4 F,,2 | C,4 B,,2 | %78
 A,,4 F,,2 | B,,4 G,,2 | A,,4 F,,2 | !fermata!G,,4 =B,,2 | C,2 F,,2 ^F,,2 | G,,4 G,,2 | C,6 | %85
 C,,6 |] %86
V:8
 x2 | x6 | x6 | x6 | x6 | x6 | x6 | x6 | x6 | x6 | x6 | x6 | x6 | x6 | x6 | x6 | x6 | x6 | x6 | %19
 x6 | x6 | x6 | x6 | x6 | x6 | x6 | x6 | x6 | x6 | x6 | x6 | x6 | x6 | x6 | x6 | x6 | x6 | x6 | %38
 x6 | x6 | x6 | x6 | x6 | x6 | x6 | x6 | x6 | x6 | x6 | x6 | x6 | x6 | x6 | x6 | x6 | x6 | x6 | %57
 x6 | x6 | x6 | x6 | x6 | x6 | x6 | x6 | x6 | x6 | x6 | x6 | x6 | x6 | x6 | x6 | x6 | x6 | x6 | %76
 x6 | x6 | x6 | x6 | x6 | x6 | x6 | x6 | F,2 G,2 A,2 | x6 |] %86

